X:31
T:Morrison's Jig
R:jig
O:Ireland
M:6/8
L:1/8
K:Edor
E3  BEB | EBE AFD | E3   BEB | dcB AFD | 
E3  BEB | EBE AFD | G3   FGA | BAG FED :|
Bee fee | aee fed | Bee  fee | fag fed |
Bee fee | aee fed | gfe d2 A | BAG FED :|
